packages/bezier-icons/icons/tag-filled.svg

<svg width="24" height="24" viewBox="0 0 24 24" fill="none" xmlns="http://www.w3.org/2000/svg">
<path fill-rule="evenodd" clip-rule="evenodd" d="M13 2.51474C12.7348 2.51474 12.4804 2.6201 12.2929 2.80763L3.3934 11.7071C2.22183 12.8787 2.22183 14.7782 3.3934 15.9498L9.05025 21.6066C10.2218 22.7782 12.1213 22.7782 13.2929 21.6066L22.1924 12.7071C22.3799 12.5196 22.4853 12.2652 22.4853 12V4.51474C22.4853 3.41017 21.5899 2.51474 20.4853 2.51474H13ZM19 7.99997C19 9.1053 18.1053 9.99997 17 9.99997C15.896 9.99997 15 9.1053 15 7.99997C15 6.89464 15.896 5.99997 17 5.99997C18.1053 5.99997 19 6.89464 19 7.99997Z" fill="#313234"/>
</svg>

<svg xmlns="http://www.w3.org/2000/svg" width="24" height="24" fill="none" viewBox="0 0 24 24"><path fill="#313234" fill-rule="evenodd" d="M13 2.515a1 1 0 0 0-.707.293l-8.9 8.9a3 3 0 0 0 0 4.242l5.657 5.657a3 3 0 0 0 4.243 0l8.9-8.9a1 1 0 0 0 .292-.707V4.515a2 2 0 0 0-2-2zM19 8a1.999 1.999 0 1 1-4 0 2 2 0 1 1 4 0" clip-rule="evenodd"/></svg>
